images/logo/omari-2.svg

<svg height="1000" viewBox="0 0 1000 1000" width="1000" xmlns="http://www.w3.org/2000/svg"><path d="m531.4 303 176.6-100.7-119.1-146.7-24.1 19.7 96 118.1-160.8 91.8-160.8-91.8 96-118.1-24.1-19.7-119.1 146.7 176.6 100.7-193.4 110.4v306.3l205.9 224.7v-532.5h-31v452.6l-143.8-156.8v-276.2l193.7-110.5 193.7 110.5v276.2l-143.8 156.8v-452.6h-31v532.5l205.9-224.7v-306.3z" fill="#c24242"/></svg>

<svg xmlns="http://www.w3.org/2000/svg" width="1000" height="1000" viewBox="0 0 1000 1000"><path fill="#c24242" d="M531.4 303L708 202.3 588.9 55.6l-24.1 19.7 96 118.1L500 285.2l-160.8-91.8 96-118.1-24.1-19.7L292 202.3 468.6 303 275.2 413.4v306.3l205.9 224.7V411.9h-31v452.6L306.3 707.7V431.5L500 321l193.7 110.5v276.2L549.9 864.5V411.9h-31v532.5l205.9-224.7V413.4z"/></svg>
